X: 8457
T: Craic With Jack
R: polka
M: 2/4
K: Adorian
|:eA a>g|ed ce|d2 dc|B/c/d/c/ BG|
[1 eA a>g|ed cA|dc Bc|A2 A>B:|
[2 A,>B, CD|EG AB|cd Bc|A2 AB||
A a2 A|g2 fg|e>d eg|ed cB|
A a2 A|g2 fg|e>d eg|a2 ab|
a/b/a/g/ ed|eA A/B/c/A/|d2 dc|B/c/d/c/ BG|
A,>B, CD|EG AB|cd Bc|AB cB||

